X: 7
T:Dinners 1
% Nottingham Music Database
S:Wolfstone Arr Hamish, via EF
M:4/4
L:1/4
K:A
"A"Ac/2A/2 Bd/2B/2|"A"ce/2A/2 B/2A/2G/2B/2|Ac/2A/2 Bd/2B/2|\
"D"c/2B/2A/2c/2 "E7"B/2A/2G/2B/2|
"A"Ac/2A/2 Bd/2B/2|ce/2A/2 B/2A/2G/2A/2|"D"d/2c/2B/2c/2 B/2A/2B/2G/2|\
"E7"E/2G/2B/2G/2 "A"Az:||:
"A"AA/2c/2 e/2A/2c/2e/2|"D"f/2e/2d/2c/2 "E7"B/2A/2G/2A/2|\
"F#m"c/2A/2F/2FG/2A/2G/2|"B7"Ac/2A/2 "E7"B/2A/2G/2B/2|
"F#m"AA/2c/2 e/2A/2c/2e/2|"D"f/2e/2d/2c/2 "E7"B/2A/2G/2A/2|\
"F#m"c/2A/2F/2FG/2B/2G/2|"E7"E/2G/2B/2G/2 "A"Az|
"F#m"AA/2c/2 e/2A/2c/2e/2|"D"f/2e/2d/2c/2 "E7"B/2A/2G/2A/2|\
"F#m"c/2A/2F/2FG/2A/2G/2|"B7"Ac/2A/2 "E7"B/2A/2G/2B/2|
"A"Ac/2A/2 Bd/2B/2|ce/2A/2 B/2A/2G/2A/2|"D"d/2c/2B/2c/2 B/2A/2B/2G/2|\
"E7"E/2G/2B/2G/2 "A"Az:|


